mimetypes/24/text-x-script.svg

<svg width="24" version="1.1" xmlns="http://www.w3.org/2000/svg" height="24">
<defs id="defs3051">
<style type="text/css" id="current-color-scheme">
.ColorScheme-Text {
color:#4d4d4d;
}
</style>
</defs>
<path style="fill:currentColor" d="m 3,3 v 18 h 18 v -18 h -18 z  m 5.0566,3 h 1.04688 v 1.4668 c 0.533017,0.0426413 1.48065,0.148271 2.5918,0.445312 v 1.64258 c -0.812611,-0.341299 -1.70695,-0.563617 -2.5918,-0.607422 v 1.85352 c 1.69072,0.319007 3.17188,0.613172 3.17188,2.68945 0,1.88114 -1.47515,2.45461 -3.17188,2.55078 v 1.95898 h -1.04688 l -.0059,-1.9453 c -1.24277,-0.049713 -2.25993,-0.306686 -3.03711,-0.59375 v -1.69336 c 0.897956,0.460692 1.88326,0.776116 3.04297,0.814453 v -2.00976 c -1.88501,-0.345879 -3.05664,-0.819665 -3.05664,-2.56641 0,-1.60455 1.17514,-2.43931 3.05078,-2.51367 l .0059,-1.4922 z  m 6.9434,1 h 2 v 10 h -2 v -10 z  m -6.9434,1.9668 c -0.598679,0.0337283 -1.00781,0.345184 -1.00781,0.814453 0,0.568924 0.419266,0.803185 1.00781,0.871094 v -1.68555 z  m 1.0469,3.793 v 1.79688 c 0.649788,-0.0075 1.125,-0.229062 1.125,-0.861329 0,-0.586668 -0.334969,-0.8515 -1.125,-0.935546 z " class="ColorScheme-Text"/>
</svg>

<svg width="24" version="1.1" xmlns="http://www.w3.org/2000/svg" height="24">
<defs id="defs3051">
<style type="text/css" id="current-color-scheme">
.ColorScheme-Text {
color:#4d4d4d;
}
</style>
</defs>
<path style="fill:currentColor" d="M 3,3 V 21 H 21 V 3 Z m 5.0566,3 h 1.04688 v 1.4668 c 0.533017,0.042641 1.48065,0.148271 2.5918,0.445312 v 1.64258 C 10.882669,9.213393 9.98833,8.991075 9.10348,8.94727 v 1.85352 c 1.69072,0.319007 3.17188,0.613172 3.17188,2.68945 0,1.88114 -1.47515,2.45461 -3.17188,2.55078 V 18 H 8.0566 L 8.0507,16.0547 C 6.80793,16.004987 5.79077,15.748014 5.01359,15.46095 v -1.69336 c 0.897956,0.460692 1.88326,0.776116 3.04297,0.814453 v -2.00976 c -1.88501,-0.345879 -3.05664,-0.819665 -3.05664,-2.56641 0,-1.60455 1.17514,-2.43931 3.05078,-2.51367 l 0.0059,-1.4922 z M 15,8 h 3 v 8 H 15 Z M 8.0566,8.9668 C 7.457921,9 7.04879,9.311984 7.04879,9.781253 c 0,0.568924 0.419266,0.803185 1.00781,0.871094 v -1.68555 z m 1.0469,3.793 v 1.79688 c 0.649788,-0.0075 1.125,-0.229062 1.125,-0.861329 0,-0.586668 -0.334969,-0.8515 -1.125,-0.935546 z" class="ColorScheme-Text"/>
</svg>
